X: 25457
T: Marche Des Charbonniers
R: polka
M: 2/4
K: Aminor
E|:"Am"A3 B|"F"cz Ad|"G"cB AG|[M:3/4] "Em"AG/^F/ EF G/F/E|
[M:2/4]"Am"A3 B|"F"cz Ad|"G"cB AG|1 "Am"A2 zE:|2 "D"A2 zA||
[M:3/4]"Bm"B2e2 "D"dc/B/|[M:2/4] "Am"AB cd|ed/c/ BA|"Em"B2 zE|
"Am"A2 ze|"C"g^f "D"df|"Em"e2 ze|
[M:3/4] "C"g^f "D"df "Am"ed/c/|[M:2/4] "G"Bc de|"F"ed/c/ BA|"Em"B2 zE|
"Am"A3 B|"F"cz Ad|[M:3/4] "G"cB Az "Em"G/A/G/E/|[M:2/4] "Am"HA2 z||

